Newaita-dark/actions/16/code-function.svg

<svg height="16" viewBox="0 0 16 16" width="16" xmlns="http://www.w3.org/2000/svg"><g fill="#e0e0e0"><path d="m9.261719 5.085938h4.628906c.367187 0 .664063.296874.664063.660156v4.632812c0 .363282-.296876.660156-.664063.660156h-4.628906c-.367188 0-.660157-.296874-.660157-.660156v-4.632812c0-.363282.292969-.660156.660157-.660156zm0 0"/><path d="m2.976562 9.386719h3.96875c.183594 0 .332032.148437.332032.332031v.660156c0 .183594-.148438.332032-.332032.332032h-3.96875c-.183593 0-.332031-.148438-.332031-.332032v-.660156c0-.183594.148438-.332031.332031-.332031zm0 0"/><path d="m4.628906 1.449219h2.316406c.183594 0 .332032.148437.332032.328125v.664062c0 .179688-.148438.328125-.332032.328125h-2.316406c-.179687 0-.328125-.148437-.328125-.328125v-.664062c0-.179688.148438-.328125.328125-.328125zm0 0"/><path d="m5.292969 13.355469h1.652343c.183594 0 .332032.148437.332032.332031v.660156c0 .183594-.148438.332032-.332032.332032h-1.652343c-.183594 0-.332031-.148438-.332031-.332032v-.660156c0-.183594.148437-.332031.332031-.332031zm0 0"/><path d="m1.652344 5.417969h5.292968c.183594 0 .332032.148437.332032.328125v.664062c0 .183594-.148438.328125-.332032.328125h-5.292968c-.179688 0-.328125-.144531-.328125-.328125v-.664062c0-.179688.148437-.328125.328125-.328125zm0 0"/></g></svg>

<svg xmlns="http://www.w3.org/2000/svg" xmlns:xlink="http://www.w3.org/1999/xlink" width="16px" height="16px" viewBox="0 0 16 16" version="1.1">
<g id="surface1">
     <defs>
  <style id="current-color-scheme" type="text/css">
   .ColorScheme-Text { color:#eeeeee; } .ColorScheme-Highlight { color:#424242; }
  </style>
 </defs>
<path style="fill:currentColor" class="ColorScheme-Text" d="M 9.261719 5.085938 L 13.890625 5.085938 C 14.257812 5.085938 14.554688 5.382812 14.554688 5.746094 L 14.554688 10.378906 C 14.554688 10.742188 14.257812 11.039062 13.890625 11.039062 L 9.261719 11.039062 C 8.894531 11.039062 8.601562 10.742188 8.601562 10.378906 L 8.601562 5.746094 C 8.601562 5.382812 8.894531 5.085938 9.261719 5.085938 Z M 9.261719 5.085938 "/>
     <defs>
  <style id="current-color-scheme" type="text/css">
   .ColorScheme-Text { color:#eeeeee; } .ColorScheme-Highlight { color:#424242; }
  </style>
 </defs>
<path style="fill:currentColor" class="ColorScheme-Text" d="M 2.976562 9.386719 L 6.945312 9.386719 C 7.128906 9.386719 7.277344 9.535156 7.277344 9.71875 L 7.277344 10.378906 C 7.277344 10.5625 7.128906 10.710938 6.945312 10.710938 L 2.976562 10.710938 C 2.792969 10.710938 2.644531 10.5625 2.644531 10.378906 L 2.644531 9.71875 C 2.644531 9.535156 2.792969 9.386719 2.976562 9.386719 Z M 2.976562 9.386719 "/>
     <defs>
  <style id="current-color-scheme" type="text/css">
   .ColorScheme-Text { color:#eeeeee; } .ColorScheme-Highlight { color:#424242; }
  </style>
 </defs>
<path style="fill:currentColor" class="ColorScheme-Text" d="M 4.628906 1.449219 L 6.945312 1.449219 C 7.128906 1.449219 7.277344 1.597656 7.277344 1.777344 L 7.277344 2.441406 C 7.277344 2.621094 7.128906 2.769531 6.945312 2.769531 L 4.628906 2.769531 C 4.449219 2.769531 4.300781 2.621094 4.300781 2.441406 L 4.300781 1.777344 C 4.300781 1.597656 4.449219 1.449219 4.628906 1.449219 Z M 4.628906 1.449219 "/>
     <defs>
  <style id="current-color-scheme" type="text/css">
   .ColorScheme-Text { color:#eeeeee; } .ColorScheme-Highlight { color:#424242; }
  </style>
 </defs>
<path style="fill:currentColor" class="ColorScheme-Text" d="M 5.292969 13.355469 L 6.945312 13.355469 C 7.128906 13.355469 7.277344 13.503906 7.277344 13.6875 L 7.277344 14.347656 C 7.277344 14.53125 7.128906 14.679688 6.945312 14.679688 L 5.292969 14.679688 C 5.109375 14.679688 4.960938 14.53125 4.960938 14.347656 L 4.960938 13.6875 C 4.960938 13.503906 5.109375 13.355469 5.292969 13.355469 Z M 5.292969 13.355469 "/>
     <defs>
  <style id="current-color-scheme" type="text/css">
   .ColorScheme-Text { color:#eeeeee; } .ColorScheme-Highlight { color:#424242; }
  </style>
 </defs>
<path style="fill:currentColor" class="ColorScheme-Text" d="M 1.652344 5.417969 L 6.945312 5.417969 C 7.128906 5.417969 7.277344 5.566406 7.277344 5.746094 L 7.277344 6.410156 C 7.277344 6.59375 7.128906 6.738281 6.945312 6.738281 L 1.652344 6.738281 C 1.472656 6.738281 1.324219 6.59375 1.324219 6.410156 L 1.324219 5.746094 C 1.324219 5.566406 1.472656 5.417969 1.652344 5.417969 Z M 1.652344 5.417969 "/>
</g>
</svg>
